assets/svg/arrow_left_icon.svg

<svg fill="none" height="17" viewBox="0 0 10 17" width="10" xmlns="http://www.w3.org/2000/svg"><path d="m9.15757 1.3669c-.09193-.09216-.20113-.16527-.32136-.21516-.12022-.04989-.24911-.07557-.37927-.07557-.13017 0-.25905.02568-.37928.07557-.12022.04989-.22942.123-.32135.21516l-6.57875 6.57875c-.07339.07324-.13161.16023-.17134.256-.039726.09578-.060175.19844-.060175.30212 0 .10369.020449.20635.060175.30212.03973.09577.09795.18277.17134.25601l6.57875 6.5787c.38792.388 1.01334.388 1.40126 0 .38791-.3879.38791-1.0133 0-1.4012l-5.73167-5.73958 5.73958-5.73959c.38-.38.38-1.01333-.00791-1.39333z" fill="#101820" stroke="#1e232c" stroke-width=".2"/></svg>

<svg width="10" height="17" viewBox="0 0 10 17" fill="none" xmlns="http://www.w3.org/2000/svg">
<path d="M9.15757 1.3669C9.06564 1.27474 8.95644 1.20163 8.83621 1.15174C8.71599 1.10185 8.5871 1.07617 8.45694 1.07617C8.32677 1.07617 8.19789 1.10185 8.07766 1.15174C7.95744 1.20163 7.84824 1.27474 7.75631 1.3669L1.17756 7.94565C1.10417 8.01889 1.04595 8.10588 1.00622 8.20165C0.966494 8.29743 0.946045 8.40009 0.946045 8.50377C0.946045 8.60746 0.966494 8.71012 1.00622 8.80589C1.04595 8.90166 1.10417 8.98866 1.17756 9.0619L7.75631 15.6406C8.14423 16.0286 8.76965 16.0286 9.15757 15.6406C9.54548 15.2527 9.54548 14.6273 9.15757 14.2394L3.4259 8.49982L9.16548 2.76023C9.54548 2.38023 9.54548 1.7469 9.15757 1.3669Z" fill="#101820" stroke="#1E232C" stroke-width="0.2"/>
</svg>
